assets/img/betamax-mask.svg

<svg width="500" height="750" fill="none" xmlns="http://www.w3.org/2000/svg"><path d="M500 5a5 5 0 0 0-5-5H5a5 5 0 0 0-5 5v740a5 5 0 0 0 5 5h490a5 5 0 0 0 5-5V315l-.105-2.768a8.856 8.856 0 0 0-2.598-6.267l-95.8-95.707c-8.669-8.66-8.661-22.704.017-31.355l95.88-95.571A8.858 8.858 0 0 0 500 77.076V5z" fill="#000"/></svg>

<svg width="500" height="750" viewBox="0 0 500 750" fill="none" xmlns="http://www.w3.org/2000/svg">
<path d="M500 5C500 2.23858 497.761 0 495 0H5C2.23858 0 0 2.23857 0 5V745C0 747.761 2.23857 750 5 750H495C497.761 750 500 747.761 500 745V315L499.895 312.232C499.895 309.881 498.961 307.627 497.297 305.965L401.497 210.258C392.828 201.598 392.836 187.554 401.514 178.903L497.394 83.332C499.059 81.673 499.995 79.4225 500 77.0757V5Z" fill="black"/>
</svg>
